build/img/icon-boat.svg

<svg width="38" height="13" viewBox="0 0 38 13" fill="none" xmlns="http://www.w3.org/2000/svg">
<path d="M35.7879 10.4485L1.42308 6.99263C1.15901 6.96606 0.981029 7.22155 1.11781 7.42503C3.31425 10.6949 8.51389 13 14.5667 13H35.0671C35.2065 13 35.3287 12.9192 35.3699 12.8005L36.0551 10.8125C36.1134 10.6435 35.9849 10.4683 35.7879 10.4485Z" fill="#011C40"/>
<path d="M37.9001 4.78198C37.7994 4.64181 37.6353 4.54855 37.4511 4.52649L27.951 3.39598C27.6084 3.35584 27.286 3.57231 27.2392 3.88152C27.1924 4.19072 27.4368 4.47562 27.7832 4.51682L28.8586 4.6446C29.0157 4.66328 29.1335 4.7831 29.1335 4.92439V5.79829C29.1335 5.96614 28.9701 6.09729 28.7832 6.07921L26.2499 5.83671C26.0891 5.822 25.9669 5.70045 25.9669 5.55631V3.08227C25.9669 3.0263 25.9852 2.97205 26.0201 2.92568L27.1271 1.44365C27.2538 1.27407 27.2684 1.05701 27.1658 0.875578C27.0625 0.693552 26.858 0.574852 26.63 0.565247L13.33 2.65797e-05C13.1165 -0.00169564 12.9094 0.0803087 12.7847 0.236302C12.7847 0.236302 10.2539 3.41069 9.69909 4.10932C9.63259 4.19298 9.52111 4.23762 9.40711 4.22629L0.700479 3.39433C0.520646 3.37737 0.343263 3.42884 0.209669 3.53562C0.0766682 3.64306 0 3.79567 0 3.95617C0 4.50052 0.0791917 5.03408 0.228669 5.55188C0.261622 5.66607 0.373099 5.74914 0.50417 5.76272L36.2857 9.36103C36.437 9.37627 36.5789 9.29321 36.6239 9.16318L37.9723 5.25281C38.0267 5.09403 38.0001 4.92161 37.9001 4.78198ZM18.2768 1.65111L17.7828 4.73846C17.7588 4.88822 17.6099 4.99507 17.4408 4.97983C16.2052 4.86848 11.5628 4.4327 11.5628 4.4327C11.3221 4.40951 11.198 4.16363 11.3386 3.9873L13.5141 1.26904C13.5768 1.19101 13.6794 1.14636 13.7871 1.15093L17.9785 1.32899C18.1647 1.33687 18.3034 1.48604 18.2768 1.65111ZM25.1428 2.06318L24.7533 2.58323C24.7185 2.6296 24.7001 2.68438 24.7001 2.74035V5.37495C24.7001 5.5428 24.5367 5.67396 24.3498 5.65587L19.3237 5.17544C19.1457 5.15848 19.0184 5.01262 19.0437 4.85438L19.556 1.65343C19.5788 1.50929 19.7213 1.40417 19.8848 1.41092L24.8945 1.62402C25.1403 1.63415 25.2796 1.88003 25.1428 2.06318ZM32.9334 6.16174C32.9334 6.32959 32.77 6.46074 32.5832 6.44266C32.5832 6.44266 31.2684 6.31038 30.6794 6.24825C30.5198 6.23189 30.4001 6.11087 30.4001 5.96786V5.15053C30.4001 4.97983 30.5686 4.84755 30.7586 4.87014L32.6586 5.09622C32.8156 5.11543 32.9334 5.23525 32.9334 5.37661V6.16174ZM36.4314 5.87797L36.1964 6.55851C36.1521 6.68742 36.0108 6.77048 35.8601 6.75637L34.4826 6.62469C34.3224 6.60945 34.2001 6.4879 34.2001 6.34377V5.60328C34.2001 5.43258 34.3686 5.3003 34.5586 5.32289L36.1704 5.51452C36.3642 5.5377 36.489 5.71072 36.4314 5.87797Z" fill="#011C40"/>
</svg>

<svg width="38" height="13" fill="none" xmlns="http://www.w3.org/2000/svg"><path d="M35.788 10.448L1.423 6.993c-.264-.027-.442.229-.305.432C3.314 10.695 8.514 13 14.567 13h20.5c.14 0 .262-.08.303-.2l.685-1.988c.058-.168-.07-.344-.267-.364zM37.9 4.782a.645.645 0 00-.449-.256l-9.5-1.13c-.343-.04-.665.176-.712.486-.047.309.198.594.544.635l1.076.128c.157.018.274.138.274.28v.873c0 .168-.163.3-.35.281l-2.533-.242c-.16-.015-.283-.137-.283-.28V3.081a.26.26 0 01.053-.156l1.107-1.482a.514.514 0 00.039-.568.643.643 0 00-.536-.31L13.33 0a.687.687 0 00-.545.236L9.699 4.11a.331.331 0 01-.292.117L.7 3.394a.685.685 0 00-.49.142.542.542 0 00-.21.42c0 .545.08 1.078.229 1.596.033.114.144.197.275.21l35.782 3.599c.151.015.293-.068.338-.198l1.348-3.91a.515.515 0 00-.072-.471zm-19.623-3.13l-.494 3.086c-.024.15-.173.257-.342.242-1.236-.112-5.878-.547-5.878-.547-.24-.023-.365-.27-.224-.446l2.175-2.718a.332.332 0 01.273-.118l4.191.178c.187.008.325.157.299.322zm6.866.411l-.39.52a.261.261 0 00-.053.157v2.635c0 .168-.163.299-.35.28l-5.026-.48c-.178-.017-.306-.162-.28-.32l.512-3.202c.023-.144.165-.249.329-.242l5.01.213c.245.01.385.256.248.44zm7.79 4.099c0 .168-.163.299-.35.28 0 0-1.315-.132-1.904-.194-.16-.016-.279-.137-.279-.28V5.15c0-.171.169-.303.359-.28l1.9.225c.157.02.274.14.274.28v.786zm3.498-.284l-.235.68c-.044.13-.185.212-.336.198l-1.377-.131c-.16-.016-.283-.137-.283-.281v-.74c0-.171.169-.304.359-.281l1.611.192c.194.023.319.196.261.363z" fill="#011C40"/></svg>
